src/assets/icons/left-circle.svg

<svg width="50" height="50" viewBox="0 0 50 50" fill="none" xmlns="http://www.w3.org/2000/svg">
<path d="M34.6 24C35.1523 24 35.6 24.4477 35.6 25C35.6 25.5523 35.1523 26 34.6 26V25L34.6 24ZM17.32 25V24V24V25ZM22.3761 14.6897C22.7683 14.301 23.4015 14.3038 23.7903 14.6961C24.179 15.0883 24.1762 15.7215 23.7839 16.1103L23.08 15.4L22.3761 14.6897ZM19.6951 18.7548L20.399 19.4651V19.4651L19.6951 18.7548ZM19.6951 31.2452L20.399 30.5349V30.5349L19.6951 31.2452ZM23.7839 33.8897C24.1762 34.2785 24.179 34.9117 23.7903 35.3039C23.4015 35.6962 22.7683 35.699 22.3761 35.3103L23.08 34.6L23.7839 33.8897ZM15.4382 24.3984L14.4462 24.272L14.4462 24.272L15.4382 24.3984ZM15.4382 25.6016L14.4462 25.728L14.4462 25.728L15.4382 25.6016ZM15.4 25H14.4H15.4ZM1 25H2C2 37.7026 12.2974 48 25 48V49V50C11.1929 50 0 38.8071 0 25H1ZM25 49V48C37.7025 48 48 37.7026 48 25H49H50C50 38.8071 38.8071 50 25 50V49ZM49 25H48C48 12.2975 37.7025 2 25 2V1V0C38.8071 0 50 11.1929 50 25H49ZM25 1V2C12.2974 2 2 12.2975 2 25H1H0C0 11.1929 11.1929 0 25 0V1ZM34.6 25V26L17.32 26V25V24L34.6 24L34.6 25ZM23.08 15.4L23.7839 16.1103L20.399 19.4651L19.6951 18.7548L18.9912 18.0446L22.3761 14.6897L23.08 15.4ZM19.6951 31.2452L20.399 30.5349L23.7839 33.8897L23.08 34.6L22.3761 35.3103L18.9912 31.9554L19.6951 31.2452ZM19.6951 18.7548L20.399 19.4651C19.0326 20.8193 18.0689 21.7766 17.412 22.5946C16.7677 23.3969 16.5012 23.9676 16.4302 24.5248L15.4382 24.3984L14.4462 24.272C14.583 23.1987 15.0952 22.2854 15.8526 21.3423C16.5973 20.415 17.6582 19.3657 18.9912 18.0446L19.6951 18.7548ZM19.6951 31.2452L18.9912 31.9554C17.6582 30.6343 16.5973 29.585 15.8526 28.6577C15.0952 27.7146 14.583 26.8013 14.4462 25.728L15.4382 25.6016L16.4302 25.4752C16.5012 26.0324 16.7677 26.6031 17.412 27.4054C18.0689 28.2234 19.0326 29.1807 20.399 30.5349L19.6951 31.2452ZM15.4382 24.3984L16.4302 24.5248C16.41 24.6826 16.4 24.8413 16.4 25L15.4 25H14.4C14.4 24.7568 14.4154 24.5137 14.4462 24.272L15.4382 24.3984ZM15.4 25L16.4 25C16.4 25.1587 16.41 25.3174 16.4302 25.4752L15.4382 25.6016L14.4462 25.728C14.4154 25.4863 14.4 25.2432 14.4 25H15.4ZM17.32 25V26H15.4V25V24H17.32V25Z" fill="#F4F4F9"/>
</svg>

<svg xmlns="http://www.w3.org/2000/svg" width="50" height="50" fill="none" viewBox="0 0 50 50"><path fill="#f4f4f9" d="M34.6 24a1 1 0 1 1 0 2v-2m-17.28 1v-1zm5.056-10.31a1 1 0 0 1 1.408 1.42l-.704-.71zm-2.68 4.065.703.71zm0 12.49.703-.71zm4.088 2.645a1 1 0 0 1-1.408 1.42l.704-.71zm-8.346-9.492-.992-.126zm0 1.204-.992.126zM15.4 25h-1zM1 25h1c0 12.703 10.297 23 23 23v2C11.193 50 0 38.807 0 25zm24 24v-1c12.703 0 23-10.297 23-23h2c0 13.807-11.193 25-25 25zm24-24h-1C48 12.298 37.703 2 25 2V0c13.807 0 25 11.193 25 25zM25 1v1C12.297 2 2 12.298 2 25H0C0 11.193 11.193 0 25 0zm9.6 24v1H17.32v-2H34.6zm-11.52-9.6.704.71-3.385 3.355-.704-.71-.704-.71 3.385-3.355zm-3.385 15.845.704-.71 3.385 3.355-.704.71-.704.71-3.385-3.355zm0-12.49.704.71c-1.366 1.354-2.33 2.312-2.987 3.13-.644.802-.91 1.373-.982 1.93l-.992-.127-.992-.126c.137-1.073.65-1.987 1.407-2.93.744-.927 1.805-1.976 3.138-3.297zm0 12.49-.704.71c-1.333-1.32-2.394-2.37-3.138-3.297-.758-.943-1.27-1.857-1.407-2.93l.992-.126.992-.127c.071.557.338 1.128.982 1.93.657.818 1.62 1.776 2.987 3.13zm-4.257-6.847.992.127q-.03.237-.03.475h-2q0-.365.046-.728zM15.4 25h1q0 .238.03.475l-.992.127-.992.126A6 6 0 0 1 14.4 25zm1.92 0v1H15.4v-2h1.92z"/></svg>
